svg/image_text.svg

<svg xmlns="http://www.w3.org/2000/svg" viewBox="0 0 24 24"><path d="M22 13h-8v-2h8zm0-6h-8v2h8zm-8 10h8v-2h-8zm-2-8v6c0 1.1-.9 2-2 2H4c-1.1 0-2-.9-2-2V9c0-1.1.9-2 2-2h6c1.1 0 2 .9 2 2m-1.5 6-2.2-3-1.8 2.3-1.2-1.5L3.5 15z"/></svg>

<?xml version="1.0" encoding="UTF-8"?><!DOCTYPE svg PUBLIC "-//W3C//DTD SVG 1.1//EN" "http://www.w3.org/Graphics/SVG/1.1/DTD/svg11.dtd"><svg xmlns="http://www.w3.org/2000/svg" xmlns:xlink="http://www.w3.org/1999/xlink" version="1.1" id="mdi-image-text" width="24" height="24" viewBox="0 0 24 24"><path d="M22 13H14V11H22V13M22 7H14V9H22V7M14 17H22V15H14V17M12 9V15C12 16.1 11.1 17 10 17H4C2.9 17 2 16.1 2 15V9C2 7.9 2.9 7 4 7H10C11.1 7 12 7.9 12 9M10.5 15L8.3 12L6.5 14.3L5.3 12.8L3.5 15H10.5Z" /></svg>
